!!!OTL: Jakobs Freierei.
!!!OTL-incipit: MESOPOTAMIA HEISSET DAS LAND
!!!ARE: Europa, Mitteleuropa, Deutschland, Niederrhein
!!!SCT: Z1102
!!!TXL: @@DE
!!!YEM: Copyright 1995, estate of Helmut Schaffrath.
**kern	**text
*ICvox	*
*M3/4	*
*k[b-e-]	*
*B-:	*
=1	=1
!LO:TX:a:t=Vom Niederrhein.	!
{4b-/	Me-
4a	-ſo-
4b-/	-po-
=2	=2
4cc	-ta-
4b-	-mi-
4cc	-a
=3	=3
4ee-	hei-
4dd	-ßet
4ee-	das
=4	=4
2cc}	Land,
{4ff	da
=5	=5
4ee-	Ja-
4dd	-kob
4cc	ſein
=6	=6
4.b-	Herʒ-
8f	-chen
4b-	und
=7	=7
4ddqq	.
4cc	Schätʒchen
4b-	.
4a	drin
=8	=8
2b-/}	fand;
{8fL	und
8aJ	.
=9	=9
4cc	als
4cc	er
4cc	die
=10	=10
4cc	Ra-
4cc	-hel
8cc	bei
8cc	den
=11	=11
4ff	Scha-
4cc	-fen
4a	er-
=12	=12
2f}	-blickt,
{4g	da
=13	=13
4a	war
4b-/	ihm
4g	ſein
=14	=14
4a	Sinn
4b-/	ganʒ
4g	ent-
=15	=15
4f	-ʒückt,
4f	daß
8c	er
8c	ihr
=16	=16
2.f}	gab
=17	=17
{4b-	ei-
4b-	-nen
4b-	ver-
=18	=18
4e-	-lieb-
4e-	-ten
4e-	Kuß
=19	=19
4e-	auf
4ee-	ih-
4dd	-ren
=20	=20
2cc}	Mund,
{4ff	da
=21	=21
4ee-	macht'
4dd	er
4cc	die
=22	=22
4b-	Lie-
4b-	-be
8ddL	mit
8ccJ	.
=23	=23
4b-	Wei-
4b-	-nen
4a	recht
=24	=24
2b-	kund!
4r}	.
==	==
!!!AGN: Romanze, Ballade
!!!ONB: ESAC (Essen Associative Code) Database: ZUCCAL
!!!AMT: simple triple
!!!AIN: vox
!!!EED: Helmut Schaffrath
!!!EEV: 1.0
!!!GTL: II. Gau- Leuschen.
!!!URL-scan: https://www.digitale-sammlungen.de/de/view/bsb11160573?page=219
!!!ENC: Anna Maria Matuszewska
!!!EEV: 2025/02/04
*-	*-
